X: 2434
T: Ballinamore, The
R: reel
M: 4/4
K: Edorian
|:G2BG E2AG|FDFA dAFA|G2BG FGA=c|1 ~B2AF GEEF:|2 ~B2AF GEgf||
eB~B2 efge|fede f2gf|eB~B2 efge|fedf efgf|
eB~B2 efge|fedf afgf|eB~B2 dBAB|d3e fdAF||

